svgs/sharp-regular/omega.svg

<svg xmlns="http://www.w3.org/2000/svg" viewBox="0 0 448 512"><!--! Font Awesome Pro 6.6.0 by @fontawesome - https://fontawesome.com License - https://fontawesome.com/license (Commercial License) Copyright 2024 Fonticons, Inc. --><path d="M224 80C126.8 80 48 158.8 48 256c0 66.6 36.9 124.5 91.5 154.5l12.5 6.8 0 14.2 0 24.5 0 24-24 0L24 480 0 480l0-48 24 0 61.4 0C33.4 391 0 327.4 0 256C0 132.3 100.3 32 224 32s224 100.3 224 224c0 71.4-33.4 135-85.4 176l61.4 0 24 0 0 48-24 0-104 0-24 0 0-24 0-24.5 0-14.2 12.5-6.8C363.1 380.5 400 322.6 400 256c0-97.2-78.8-176-176-176z"/></svg>

<svg xmlns="http://www.w3.org/2000/svg" viewBox="0 0 448 512"><!--! Font Awesome Pro 6.4.2 by @fontawesome - https://fontawesome.com License - https://fontawesome.com/license (Commercial License) Copyright 2023 Fonticons, Inc. --><path d="M224 80C126.8 80 48 158.8 48 256c0 66.6 36.9 124.5 91.5 154.5l12.5 6.8 0 14.2 0 24.5 0 24H128 24 0V432H24 85.4C33.4 391 0 327.4 0 256C0 132.3 100.3 32 224 32s224 100.3 224 224c0 71.4-33.4 135-85.4 176H424h24v48H424 320 296V456 431.5 417.3l12.5-6.8C363.1 380.5 400 322.6 400 256c0-97.2-78.8-176-176-176z"/></svg>
